svg/fluentui-system-icons/ic_fluent_video_person_28_regular.svg

<svg width="28" height="28" viewBox="0 0 28 28" fill="none" xmlns="http://www.w3.org/2000/svg">
<path d="M2.00391 6.75C2.00391 5.23122 3.23512 4 4.75391 4H23.2505C24.7693 4 26.0005 5.23122 26.0005 6.75V21.2501C26.0005 22.7688 24.7693 24.0001 23.2505 24.0001H4.75391C3.23513 24.0001 2.00391 22.7688 2.00391 21.2501V6.75ZM4.75391 5.5C4.06355 5.5 3.50391 6.05964 3.50391 6.75V21.2501C3.50391 21.9404 4.06355 22.5001 4.75391 22.5001H8V18.5C8 17.3954 8.89543 16.5 10 16.5H18C19.1046 16.5 20 17.3954 20 18.5V22.5001H23.2505C23.9409 22.5001 24.5005 21.9404 24.5005 21.2501V6.75C24.5005 6.05965 23.9409 5.5 23.2505 5.5H4.75391ZM18.5 22.5001V18.5C18.5 18.2239 18.2761 18 18 18H10C9.72386 18 9.5 18.2239 9.5 18.5V22.5001H18.5ZM14 9.5C12.8954 9.5 12 10.3954 12 11.5C12 12.6046 12.8954 13.5 14 13.5C15.1046 13.5 16 12.6046 16 11.5C16 10.3954 15.1046 9.5 14 9.5ZM10.5 11.5C10.5 9.567 12.067 8 14 8C15.933 8 17.5 9.567 17.5 11.5C17.5 13.433 15.933 15 14 15C12.067 15 10.5 13.433 10.5 11.5Z" fill="#212121"/>
</svg>

<svg xmlns="http://www.w3.org/2000/svg" width="28" height="28"><path d="M2.004 6.75A2.75 2.75 0 0 1 4.754 4H23.25A2.75 2.75 0 0 1 26 6.75v14.5A2.75 2.75 0 0 1 23.25 24H4.755a2.75 2.75 0 0 1-2.75-2.75V6.75Zm2.75-1.25c-.69 0-1.25.56-1.25 1.25v14.5c0 .69.56 1.25 1.25 1.25H8v-4a2 2 0 0 1 2-2h8a2 2 0 0 1 2 2v4h3.25c.69 0 1.25-.56 1.25-1.25V6.75c0-.69-.56-1.25-1.25-1.25H4.755Zm13.746 17v-4a.5.5 0 0 0-.5-.5h-8a.5.5 0 0 0-.5.5v4h9ZM14 9.5a2 2 0 1 0 0 4 2 2 0 0 0 0-4Zm-3.5 2a3.5 3.5 0 1 1 7 0 3.5 3.5 0 0 1-7 0Z"/></svg>
